X: 609
T: Dügâh Seyir
C: Erol Bingöl
O: Turkey
F: http://compmusic.upf.edu/node/140
N: dugah--seyir--sofyan--1--erol_bingol
N: makam= dugah
N: form= seyir
N: usul= sofyan = 4/4
M: 4/4
L: 1/16
K: C _1/4B _7/8d  
Q: 1/4=60
%%MIDI tuningsystem comma53
A4 A2B2 c4 _3/4d4  | c4 _3/4d2c2 B2BA A4  | \
w:   |   | 
A2e2 _3/4d2c2 c3B A2B2  | c6G2 A2B2 c4  | 
w:   |   | 
c6_3/4d2 c4 _7/8B4  | A6^c2 _7/8B8  | \
w:   |   | 
A4 ^G2F2 G2A2 _7/8B2^c2  | _7/8B3A ^G2BA A8  | |


